X: 1
T: the Argos Inn
T: for Master Barton's Arrival by David Smukler
C: Rachel Bell (2015)
R: minuet
%S:s:4 b:27(7+7+7+6)
S: https://davidsmukler.syracusecountrydancers.org/wp-content/uploads/2020/09/argos-inn.pdf 2022-3-13
Z: 2022 John Chambers <jc:trillian.mit.edu>
M: 3/2
L: 1/8
K: C
"^A"|:\
"C"C4 c4 G4 | "G"d3c B2G2 "C"B2c2- | "F"c2AG F2E2 D2C2 | "G"D3E F2D2 E2D2 ||\
"C"C4 c4 G4 | "G"d3c B2G2 "C"B2c2- | "F"c2AG F2E2 F2G2 |
"G"D5 C2 "C"C2 "^B1":|\
G,2D2 D2B,2 E2E2 | F3E F2G2 "C"E2C2 | "F"AGAB "Dm"c3G F2E2 | "G"D12 ||\
B,CD2 G,2D2 G2F2 | "C"E2C2 E2G2 c2B2 |
"F"A2 F4 A2 "C"G2FE | "G"D6 C2 "C"C4 "^B2"||\
"G"G,2D2 D2G,2 E2E2 | F3E F2G2 "C"E2C2 | "F"AGAB "Dm"c3G F2E2 | "G"D8 C2B,2 ||\
"F"A,2C2 C2"G/B"B,2 D2D2 |
"C"C3B, C2D2 E4 | "F"A2c2 c2"^G/B"B2 d2d2 | "C"c3G F2E2 "G"D4 | "F"AGAB "Dm"c3G F2E2 |\
"G"D12 |] ["(last time only)" "G"D6 C2 "C"C4 |]
